assets/icons/qvision/subject.svg

<svg xmlns="http://www.w3.org/2000/svg" height="24" viewBox="0 0 24 24" width="24"><path d="M0 0h24v24H0z" fill="none"/><path d="M14 17H4v2h10v-2zm6-8H4v2h16V9zM4 15h16v-2H4v2zM4 5v2h16V5H4z"/></svg>

<svg width="24" height="24" viewBox="0 0 24 24" fill="none" xmlns="http://www.w3.org/2000/svg">
<g clip-path="url(#clip0_147_4793)">
<path d="M14 17H4V19H14V17ZM20 9H4V11H20V9ZM4 15H20V13H4V15ZM4 5V7H20V5H4Z" fill="#323232"/>
</g>
<defs>
<clipPath id="clip0_147_4793">
<rect width="24" height="24" fill="white"/>
</clipPath>
</defs>
</svg>
